X: 14039
T: Fraser Arms, The
R: reel
M: 4/4
K: Gmajor
|:B,2B,G DB,CA,|(3B,A,G, B,G DB,BG|AFGE DB,CA,|~B,2B,B AF[G,2E2]:|
dBBg dBcA|dBBd efge|dBBg dBcA|(3B,CD GB AFE2|
dBBg dBcA|dBBd efge|dBAF GEDC|B,A,G,B AF EG,||

